dist/img/svg/cup_icon.svg

<svg xmlns="http://www.w3.org/2000/svg" viewBox="0 0 60.35 48.53"><path d="M45.35 23.82c.29-2.41.53-4.92.73-7.44l.04-.49h2.91c2.06 0 3.46 1.9 3.46 4.25s-1.88 4.28-3.94 4.28h-3.27l.07-.6zm1.88-15.54h-1.22L46 8.04c-.06-1.78-.19-3.54-.38-5.25l-.14-1.3H2.05l-.14 1.3c-.28 2.48-.41 5.04-.41 7.58 0 7.35.87 14.27 2.53 20.02.86 2.98 6.06 14.57 7.77 16.23l.42.41h23.09l.43-.41c1.71-1.66 6.58-12.45 7.37-14.93l.05-.17h4.07c6.41 0 11.62-5.21 11.62-11.62 0-6.41-5.21-11.62-11.62-11.62z" stroke="#000" fill="none" stroke-width="3"/></svg>

<svg xmlns="http://www.w3.org/2000/svg" viewBox="0 0 60.35 48.53">
	<style type="text/css">
		.st0{stroke:#000000;fill:none;stroke-width:3;}
	</style>
	<path class="st0" d="M45.35,23.82C45.64,21.41 45.88,18.9 46.08,16.38L46.12,15.89L49.03,15.89C51.09,15.89 52.49,17.79 52.49,20.14C52.49,22.49 50.61,24.42 48.55,24.42L45.28,24.42L45.35,23.82ZM47.23,8.28L46.01,8.28L46,8.04C45.94,6.26 45.81,4.5 45.62,2.79L45.48,1.49L2.05,1.49L1.91,2.79C1.63,5.27 1.5,7.83 1.5,10.37C1.5,17.72 2.37,24.64 4.03,30.39C4.89,33.37 10.09,44.96 11.8,46.62L12.22,47.03L35.31,47.03L35.74,46.62C37.45,44.96 42.32,34.17 43.11,31.69L43.16,31.52L47.23,31.52C53.64,31.52 58.85,26.31 58.85,19.9C58.85,13.49 53.64,8.28 47.23,8.28Z"/>
</svg>
